X: 1
T: Karusellen
T: The Carousel
M: C
L: 1/8
K: D
| "D" A2 A2 A2 A2 | d>A FG A2 z2 | "A"B>A GF G2 G2 | A>G FE "D"F2 F2 |
| "D"A>A AA A2 AA | d2 F>G A2 A>A | "Em"B2 B>B "A7"c2 c>c | "D"d>d dd d2 A2 |
|: "D"A2 A2 A2 z>A | "Em"B2 B>B B2 z>B | "A7"c>c c>c c>A Bc |1 "D"d2 d>d d2 z>F :| "D"d2 d>d d2 |]
